src/UI/img/credit-card-amex.svg

<svg fill="none" height="32" viewBox="0 0 32 32" width="32" xmlns="http://www.w3.org/2000/svg"><path d="m26 4c3.3137 0 6 2.68629 6 6v12c0 3.3137-2.6863 6-6 6h-20c-3.31371 0-5.99999902-2.6863-5.99999888-6l.00000053-12c.00000014-3.31371 2.68628835-6 5.99999835-6z" fill="#006fcf"/><path clip-rule="evenodd" d="m30 22v-12c0-2.20914-1.7909-4-4-4h-20c-2.20914 0-4 1.79086-4 4v12c0 2.2091 1.79086 4 4 4h20c2.2091 0 4-1.7909 4-4zm2-12c0-3.31371-2.6863-6-6-6h-20c-3.31371 0-5.99999821 2.68629-5.99999835 6l-.00000053 12c-.00000014 3.3137 2.68628888 6 5.99999888 6h20c3.3137 0 6-2.6863 6-6z" fill="#000" fill-opacity=".18" fill-rule="evenodd"/><path d="m26.5702 14.9265h2.1202v-4.9265h-2.3073v.686l-.4366-.686h-1.9955v.8731l-.3742-.8731h-3.6792c-.1248 0-.2495.0624-.3742.0624s-.1871.0623-.3118.1247c-.1247.0623-.1871.0623-.3118.1247v-.3118h-10.539l-.3118.8107-.31181-.8107h-2.49443v.8731l-.37416-.8731h-1.99555l-.87305 2.1203v2.8062h1.4343l.24944-.686h.49889l.24944.686h10.97553v-.6236l.4365.6236h3.0557v-.3742c.0623.0624.1871.0624.2494.1248.0624.0623.1871.0623.2495.1247.1247.0623.2494.0623.3741.0623h2.245l.2495-.6859h.4988l.2495.6859h3.0557v-.6236zm3.4298 6.2361v-4.6147h-17.1492l-.4365.6236-.4366-.6236h-4.98884v4.9265h4.98884l.4366-.6236.4365.6236h3.118v-1.0601h-.1247c.4365 0 .8107-.0624 1.1225-.1871v1.3095h2.245v-.6236l.4365.6236h9.2918c.3741-.1247.7483-.187 1.0601-.3741z" fill="#fff"/><path d="m28.9399 19.9777h-1.6838v.686h1.6214c.686 0 1.1225-.4366 1.1225-1.0602s-.3742-.9354-.9978-.9354h-.7483c-.1871 0-.3118-.1247-.3118-.3118s.1247-.3118.3118-.3118h1.4343l.3118-.6859h-1.6837c-.686 0-1.1225.4365-1.1225.9977 0 .6236.3741.9354.9977.9354h.7484c.187 0 .3118.1248.3118.3118.0623.2495-.0624.3742-.3118.3742zm-3.0557 0h-1.6838v.686h1.6214c.686 0 1.1225-.4366 1.1225-1.0602s-.3741-.9354-.9978-.9354h-.7483c-.1871 0-.3118-.1247-.3118-.3118s.1247-.3118.3118-.3118h1.4343l.3118-.6859h-1.6837c-.686 0-1.1225.4365-1.1225.9977 0 .6236.3741.9354.9978.9354h.7483c.1871 0 .3118.1248.3118.3118.0624.2495-.1247.3742-.3118.3742zm-2.1826-1.9955v-.686h-2.6192v3.3051h2.6192v-.686h-1.8709v-.6859h1.8085v-.686h-1.8085v-.6236h1.8709zm-4.2406 0c.3118 0 .4366.187.4366.3741s-.1248.3742-.4366.3742h-.9354v-.8107zm-.9354 1.4343h.3742l.9978 1.1848h.9354l-1.1225-1.2472c.5612-.1247.873-.4989.873-.9978 0-.6236-.4365-1.0601-1.1225-1.0601h-1.7461v3.3051h.7484zm-1.9955-.9978c0 .2494-.1248.4365-.4366.4365h-.9977v-.873h.9354c.3118 0 .4989.187.4989.4365zm-2.1827-1.1225v3.3051h.7484v-1.1225h.9977c.686 0 1.1849-.4365 1.1849-1.1225 0-.6236-.4365-1.1225-1.1225-1.1225zm-1.1225 3.3051h.9355l-1.3096-1.6837 1.3096-1.6214h-.9355l-.8106 1.0601-.8107-1.0601h-.9354l1.3095 1.6214-1.3095 1.6214h.9354l.8107-1.0602zm-2.8062-2.6191v-.686h-2.61915v3.3051h2.61915v-.686h-1.87082v-.6859h1.80842v-.686h-1.80842v-.6236h1.87082zm15.1537-5.862 1.3096 1.9956h.9354v-3.3051h-.7484v2.1826l-.187-.3118-1.1849-1.8708h-.9978v3.3051h.7484v-2.245zm-3.2428-.0623.2495-.686.2494.686.3118.7483h-1.1225zm1.3096 2.0579h.8107l-1.4343-3.3051h-.9978l-1.4343 3.3051h.8107l.3118-.686h1.6214zm-3.4922 0 .3118-.686h-.1871c-.5612 0-.873-.3741-.873-.9354v-.0624c0-.5612.3118-.9354.873-.9354h.8107v-.6859h-.873c-.9978 0-1.5591.6859-1.5591 1.6213v.0624c0 .9978.5613 1.6214 1.4967 1.6214zm-2.8062 0h.7483v-3.2428h-.7483zm-1.6214-2.6192c.3118 0 .4365.1871.4365.3742s-.1247.3742-.4365.3742h-.9354v-.8107zm-.9354 1.4343h.3741l.9978 1.1849h.9354l-1.1225-1.2472c.5613-.1247.8731-.4989.8731-.9978 0-.6236-.4366-1.0601-1.1225-1.0601h-1.7461v3.3051h.7483zm-1.372-1.4343v-.6859h-2.6191v3.3051h2.6191v-.686h-1.8708v-.6859h1.8085v-.686h-1.8085v-.6236h1.8708zm-5.67481 2.6192h.68597l.93541-2.6815v2.6815h.74833v-3.3051h-1.24721l-.74833 2.245-.74833-2.245h-1.24722v3.3051h.74833v-2.6815zm-4.05345-2.0579.24944-.686.24945.686.3118.7483h-1.12249zm1.30958 2.0579h.81069l-1.4343-3.3051h-.93541l-1.4343 3.3051h.81069l.3118-.686h1.62139z" fill="#006fcf"/></svg>

<svg width="32" height="32" viewBox="0 0 32 32" fill="none" xmlns="http://www.w3.org/2000/svg">
<path d="M26 4C29.3137 4 32 6.68629 32 10L32 22C32 25.3137 29.3137 28 26 28L6 28C2.68629 28 9.75697e-07 25.3137 1.12054e-06 22L1.64508e-06 10C1.78993e-06 6.68629 2.68629 4 6 4L26 4Z" fill="#006FCF"/>
<path fill-rule="evenodd" clip-rule="evenodd" d="M30 22L30 10C30 7.79086 28.2091 6 26 6L6 6C3.79086 6 2 7.79086 2 10L2 22C2 24.2091 3.79086 26 6 26L26 26C28.2091 26 30 24.2091 30 22ZM32 10C32 6.68629 29.3137 4 26 4L6 4C2.68629 4 1.78993e-06 6.68629 1.64508e-06 10L1.12054e-06 22C9.75697e-07 25.3137 2.68629 28 6 28L26 28C29.3137 28 32 25.3137 32 22L32 10Z" fill="black" fill-opacity="0.18"/>
<path d="M26.5702 14.9265H28.6904V10H26.3831V10.686L25.9465 10H23.951V10.8731L23.5768 10H19.8976C19.7728 10 19.6481 10.0624 19.5234 10.0624C19.3987 10.0624 19.3363 10.1247 19.2116 10.1871C19.0869 10.2494 19.0245 10.2494 18.8998 10.3118V10H8.3608L8.049 10.8107L7.73719 10H5.24276V10.8731L4.8686 10H2.87305L2 12.1203V14.9265H3.4343L3.68374 14.2405H4.18263L4.43207 14.9265H15.4076V14.3029L15.8441 14.9265H18.8998V14.5523C18.9621 14.6147 19.0869 14.6147 19.1492 14.6771C19.2116 14.7394 19.3363 14.7394 19.3987 14.8018C19.5234 14.8641 19.6481 14.8641 19.7728 14.8641H22.0178L22.2673 14.1782H22.7661L23.0156 14.8641H26.0713V14.2405L26.5702 14.9265ZM30 21.1626V16.5479H12.8508L12.4143 17.1715L11.9777 16.5479H6.98886V21.4744H11.9777L12.4143 20.8508L12.8508 21.4744H15.9688V20.4143H15.8441C16.2806 20.4143 16.6548 20.3519 16.9666 20.2272V21.5367H19.2116V20.9131L19.6481 21.5367H28.9399C29.314 21.412 29.6882 21.3497 30 21.1626Z" fill="white"/>
<path d="M28.9399 19.9777H27.2561V20.6637H28.8775C29.5635 20.6637 30 20.2271 30 19.6035C30 18.9799 29.6258 18.6681 29.0022 18.6681H28.2539C28.0668 18.6681 27.9421 18.5434 27.9421 18.3563C27.9421 18.1692 28.0668 18.0445 28.2539 18.0445H29.6882L30 17.3586H28.3163C27.6303 17.3586 27.1938 17.7951 27.1938 18.3563C27.1938 18.9799 27.5679 19.2917 28.1915 19.2917H28.9399C29.1269 19.2917 29.2517 19.4165 29.2517 19.6035C29.314 19.853 29.1893 19.9777 28.9399 19.9777ZM25.8842 19.9777H24.2004V20.6637H25.8218C26.5078 20.6637 26.9443 20.2271 26.9443 19.6035C26.9443 18.9799 26.5702 18.6681 25.9465 18.6681H25.1982C25.0111 18.6681 24.8864 18.5434 24.8864 18.3563C24.8864 18.1692 25.0111 18.0445 25.1982 18.0445H26.6325L26.9443 17.3586H25.2606C24.5746 17.3586 24.1381 17.7951 24.1381 18.3563C24.1381 18.9799 24.5122 19.2917 25.1359 19.2917H25.8842C26.0713 19.2917 26.196 19.4165 26.196 19.6035C26.2584 19.853 26.0713 19.9777 25.8842 19.9777ZM23.7016 17.9822V17.2962H21.0824V20.6013H23.7016V19.9153H21.8307V19.2294H23.6392V18.5434H21.8307V17.9198H23.7016V17.9822ZM19.461 17.9822C19.7728 17.9822 19.8976 18.1692 19.8976 18.3563C19.8976 18.5434 19.7728 18.7305 19.461 18.7305H18.5256V17.9198L19.461 17.9822ZM18.5256 19.4165H18.8998L19.8976 20.6013H20.833L19.7105 19.3541C20.2717 19.2294 20.5835 18.8552 20.5835 18.3563C20.5835 17.7327 20.147 17.2962 19.461 17.2962H17.7149V20.6013H18.4633L18.5256 19.4165ZM16.5301 18.4187C16.5301 18.6681 16.4053 18.8552 16.0935 18.8552H15.0958V17.9822H16.0312C16.343 17.9822 16.5301 18.1692 16.5301 18.4187ZM14.3474 17.2962V20.6013H15.0958V19.4788H16.0935C16.7795 19.4788 17.2784 19.0423 17.2784 18.3563C17.2784 17.7327 16.8419 17.2338 16.1559 17.2338L14.3474 17.2962ZM13.2249 20.6013H14.1604L12.8508 18.9176L14.1604 17.2962H13.2249L12.4143 18.3563L11.6036 17.2962H10.6682L11.9777 18.9176L10.6682 20.539H11.6036L12.4143 19.4788L13.2249 20.6013ZM10.4187 17.9822V17.2962H7.79955V20.6013H10.4187V19.9153H8.54788V19.2294H10.3563V18.5434H8.54788V17.9198H10.4187V17.9822ZM25.5724 12.1202L26.882 14.1158H27.8174V10.8107H27.069V12.9933L26.882 12.6815L25.6971 10.8107H24.6993V14.1158H25.4477V11.8708L25.5724 12.1202ZM22.3296 12.0579L22.5791 11.3719L22.8285 12.0579L23.1403 12.8062H22.0178L22.3296 12.0579ZM23.6392 14.1158H24.4499L23.0156 10.8107H22.0178L20.5835 14.1158H21.3942L21.706 13.4298H23.3274L23.6392 14.1158ZM20.147 14.1158L20.4588 13.4298H20.2717C19.7105 13.4298 19.3987 13.0557 19.3987 12.4944V12.432C19.3987 11.8708 19.7105 11.4966 20.2717 11.4966H21.0824V10.8107H20.2094C19.2116 10.8107 18.6503 11.4966 18.6503 12.432V12.4944C18.6503 13.4922 19.2116 14.1158 20.147 14.1158ZM17.3408 14.1158H18.0891V10.873H17.3408V14.1158ZM15.7194 11.4966C16.0312 11.4966 16.1559 11.6837 16.1559 11.8708C16.1559 12.0579 16.0312 12.245 15.7194 12.245H14.784V11.4343L15.7194 11.4966ZM14.784 12.9309H15.1581L16.1559 14.1158H17.0913L15.9688 12.8686C16.5301 12.7439 16.8419 12.3697 16.8419 11.8708C16.8419 11.2472 16.4053 10.8107 15.7194 10.8107H13.9733V14.1158H14.7216L14.784 12.9309ZM13.412 11.4966V10.8107H10.7929V14.1158H13.412V13.4298H11.5412V12.7439H13.3497V12.0579H11.5412V11.4343H13.412V11.4966ZM7.73719 14.1158H8.42316L9.35857 11.4343V14.1158H10.1069V10.8107H8.85969L8.11136 13.0557L7.36303 10.8107H6.11581V14.1158H6.86414V11.4343L7.73719 14.1158ZM3.68374 12.0579L3.93318 11.3719L4.18263 12.0579L4.49443 12.8062H3.37194L3.68374 12.0579ZM4.99332 14.1158H5.80401L4.36971 10.8107H3.4343L2 14.1158H2.81069L3.12249 13.4298H4.74388L4.99332 14.1158Z" fill="#006FCF"/>
</svg>
